www/assets/icons/nest_cam_wired_stand.svg

<svg width="24" height="24" viewBox="0 0 24 24" xmlns="http://www.w3.org/2000/svg" fill='currentColor'><path d="M15.83 1.00891L11.72 1.42891C8.47 1.74891 6 4.47891 6 7.74891C6 11.0189 8.47 13.7489 11.72 14.0789L13.62 14.2689L13.06 15.1189C12.71 15.0389 12.36 14.9989 12 14.9989C9.24 14.9989 7 17.2389 7 19.9989V21.9989C7 22.5489 7.45 22.9989 8 22.9989H16C16.55 22.9989 17 22.5489 17 21.9989V19.9989C17 18.3289 16.17 16.8489 14.91 15.9389L15.88 14.4889C17.02 14.5589 18 13.6589 18 12.4989V2.99891C18 1.82891 17 0.908911 15.83 1.00891Z"/></svg>

<svg xmlns="http://www.w3.org/2000/svg" width="24" height="24" viewBox="0 0 24 24" fill='currentColor'><path d="m15.83 1.009-4.11.42A6.34 6.34 0 0 0 6 7.749c0 3.27 2.47 6 5.72 6.33l1.9.19-.56.85c-.35-.08-.7-.12-1.06-.12-2.76 0-5 2.24-5 5v2c0 .55.45 1 1 1h8c.55 0 1-.45 1-1v-2c0-1.67-.83-3.15-2.09-4.06l.97-1.45c1.14.07 2.12-.83 2.12-1.99v-9.5c0-1.17-1-2.09-2.17-1.99"/></svg>
